X: 41562
T: Union, The
R: reel
M: 4/4
K: Gmajor
e2(3cBA eAcA|eAcA Bcdf|e2(3cBA eAcA|(3Bcd cA BAFA|e2(3cBA eAcA|eAcA Bcdf|~e2ce dcBA|1 FABc dfaf:|2 FABc dABc||
|:dAFA dfec|dAFG A^ABc|dAFA dfec|1 dcBA ^GABc:|2 dcBA FAdf||
e2(3cBA eAcA|eAcA Bcdf|e2(3cBA eAcA|(3Bcd cA BAFA|e2(3cBA eAcA|eAcA Bcdf|~e2ce dcBA|1 FABc dfaf:|2 FABc d=cBA||
G2BG FGAF|GABd gedg|e2ce dBGB|ADFA dcBA|G2BG FGAF|GABd gedg|e2ce dBGB|1 ADFA dcBA:|2 ADFA G2(3eee||

